X:5
T:Jockie went to the wood or Jockie must too
Z:Jack Campin - http://www.campin.me.uk
S:Blaikie MS (NLS MS.1578) p2, Blaikie #4
M:3/4
L:1/8
V:1 midi program 1 74
V:2 midi program 1 46 bass middle = d transpose -24
Q:1/4=108
K:Bb
[V:1] B2 FD F2|c3  d cA|B2 FD F2|B6      :|
[V:2] B2 b2 b2|f2 F2 fe|d2 B2 f2|B2 b2 z2:|
%
[V:1] de fd g2|f3  e d2|ed cA Bc|A3  G F2 |
[V:2] B2 B2 e2|d2 c2 B2|f2 F2 f2|c2 c2 f2 |
%
[V:1] Bc BA G2|ef ed cA|B2 FD F2|B6      |]
[V:2] B2 d2 e2|f2 f2 e2|d2 B2 f2|B6      |]
W:Transcription (c) Jack Campin 2009, no mirroring or republication without permission

